public/icons/welcome-slider-ico1.svg

<svg width="26" height="16" viewBox="0 0 26 16" fill="none" xmlns="http://www.w3.org/2000/svg">
<path d="M25.9735 11.6271L23.2352 1.1499C23.133 0.725653 22.7535 0.426598 22.3171 0.426598C22.2949 0.426598 22.1567 0.426819 21.9293 0.431521C21.7735 0.254998 21.5465 0.14624 21.2986 0.14624C21.2112 0.14624 19.1353 0.149947 17.0212 0.475887C15.7388 0.673432 14.7035 0.951853 13.9436 1.30318C13.552 1.48419 13.2433 1.68168 12.9999 1.88597C12.7565 1.68168 12.4478 1.48419 12.0562 1.30318C11.2964 0.951798 10.261 0.673432 8.97861 0.475887C6.86459 0.149947 4.78852 0.14624 4.70117 0.14624C4.45323 0.14624 4.22625 0.254998 4.07047 0.431521C3.84306 0.426819 3.70498 0.426598 3.68269 0.426598C3.24627 0.426598 2.86673 0.725653 2.76461 1.1499L0.0263102 11.6271C-0.0947281 12.1301 0.211242 12.6366 0.712655 12.7636L12.7681 15.8153L12.769 15.8155C12.7694 15.8156 12.7699 15.8157 12.7704 15.8158C12.7927 15.8215 12.9138 15.8539 12.9999 15.8539C13.0859 15.8539 13.2071 15.8213 13.2294 15.8157C13.2298 15.8156 13.2304 15.8156 13.2307 15.8155C13.2309 15.8154 13.2312 15.8154 13.2315 15.8153L25.2871 12.7636C25.7886 12.6366 26.0945 12.1301 25.9735 11.6271ZM17.2618 2.14077C18.5608 1.93958 19.8774 1.86794 20.6394 1.84244L22.7254 10.5072L13.8411 12.7561V3.54544C13.8411 3.2429 14.5559 2.55992 17.2618 2.14077ZM12.1588 3.54538V12.7561L3.27449 10.5071L5.36046 1.84227C6.1185 1.86744 7.42575 1.93847 8.72237 2.13828C11.4406 2.55727 12.1588 3.24184 12.1588 3.54538Z" fill="#FEC447"/>
</svg>

<svg viewBox="0 0 26 16" fill="none" xmlns="http://www.w3.org/2000/svg"><path d="M25.974 11.627L23.235 1.15a.944.944 0 00-.918-.723c-.022 0-.16 0-.388.005a.84.84 0 00-.63-.286c-.088 0-2.164.004-4.278.33-1.282.197-2.318.476-3.077.827-.392.181-.7.379-.944.583a4.192 4.192 0 00-.944-.583c-.76-.351-1.795-.63-3.077-.827A31.653 31.653 0 004.7.146a.84.84 0 00-.63.286 20.136 20.136 0 00-.388-.005c-.437 0-.816.299-.918.723L.026 11.627a.944.944 0 00.687 1.137l12.055 3.051h.002c.023.007.144.039.23.039.086 0 .207-.033.23-.038h.002l12.055-3.052a.944.944 0 00.687-1.137zm-8.712-9.486a29.577 29.577 0 013.377-.299l2.086 8.665-8.884 2.25V3.544c0-.302.715-.985 3.42-1.404zm-5.103 1.404v9.211l-8.885-2.249L5.36 1.842c.758.025 2.066.096 3.362.296 2.719.42 3.437 1.104 3.437 1.407z" fill="#FEC447"/></svg>
